!!!OTL: Jijiehua zhongtian zhenshihao
!!!ARE: Asia, China, Shanxi Dingxian
!! I, 290
!!!SCT: C2095
!!!YEM: Copyright 1995, estate of Helmut Schaffrath.
**kern
*ICvox
*Ivox
*M2/4
*k[b-]
*F:
{8.g
16a
8g
8d
=1
4.c
8d
=2
8.g
16a
8g
8d
=3
2c}
=4
{8g
8b-
4cc
=5
8ff
4b-
8g
=6
8.f
16a
8g
8d
=7
2c}
=8
{8g
8a
8g
16g
16f
=9
16g
16g
16g
16d
4c
=10
8g
8a
8g
16g
16f
=11
16g
16g
16g
16d
4c}
=12
{16g
16a
16g
16f
8d
8f
=13
2g}
=14
{8g
8b-
4cc
=15
8ff
4b-
8g
=16
8f
8g
8d
8c
=17
4cc
8b-
8g
=18
8f
16g
16a
8g
8d
=19
2c}
==
!!!AGN: Xiaodiao
!! Han
!!!ONB: ESAC (Essen Associative Code) Database: SENGANSU
!!!AMT: simple duple
!!!AIN: vox
!!!EED: Helmut Schaffrath
!!!EEV: 1.0
*-
